dist/svgs/core-ui-icons/free/cil-camera-roll.svg

<svg xmlns="http://www.w3.org/2000/svg" viewBox="0 0 512 512"><path d="M328 104a32.036 32.036 0 00-32-32h-16V48a32.036 32.036 0 00-32-32H96a32.036 32.036 0 00-32 32v24H48a32.036 32.036 0 00-32 32v360a32.036 32.036 0 0032 32h248a32.036 32.036 0 0032-32v-24h168V136H328zm136 64v240H296v56H48V104h48V48h152v56h48v64z"/><path d="M392 200h40v40h-40zm-72 0h40v40h-40zm-72 0h40v40h-40zm144 136h40v40h-40zm-72 0h40v40h-40zm-72 0h40v40h-40zm-72-136h40v40h-40zm0 136h40v40h-40z"/></svg>

<svg xmlns="http://www.w3.org/2000/svg" viewBox="0 0 512 512">
  <path fill="var(--ci-primary-color, currentColor)" d="M328,104a32.036,32.036,0,0,0-32-32H280V48a32.036,32.036,0,0,0-32-32H96A32.036,32.036,0,0,0,64,48V72H48a32.036,32.036,0,0,0-32,32V464a32.036,32.036,0,0,0,32,32H296a32.036,32.036,0,0,0,32-32V440H496V136H328Zm136,64V408H296v56H48V104H96V48H248v56h48v64Z" class="ci-primary"/>
  <rect width="40" height="40" x="392" y="200" fill="var(--ci-primary-color, currentColor)" class="ci-primary"/>
  <rect width="40" height="40" x="320" y="200" fill="var(--ci-primary-color, currentColor)" class="ci-primary"/>
  <rect width="40" height="40" x="248" y="200" fill="var(--ci-primary-color, currentColor)" class="ci-primary"/>
  <rect width="40" height="40" x="392" y="336" fill="var(--ci-primary-color, currentColor)" class="ci-primary"/>
  <rect width="40" height="40" x="320" y="336" fill="var(--ci-primary-color, currentColor)" class="ci-primary"/>
  <rect width="40" height="40" x="248" y="336" fill="var(--ci-primary-color, currentColor)" class="ci-primary"/>
  <rect width="40" height="40" x="176" y="200" fill="var(--ci-primary-color, currentColor)" class="ci-primary"/>
  <rect width="40" height="40" x="176" y="336" fill="var(--ci-primary-color, currentColor)" class="ci-primary"/>
</svg>
